X:56
C:Page 29
T:Honey Moon. MBe.56
S:Matthew Betham MS, Towcett Cumbria, 1815
O:England;Cumbria;Towcett
Z:VMP – Hugh Taylor, 2012
M:C
L:1/8
Q:1/2=100
R:.Reel
N:Someone has written in a different hand alongside the title, “Honeymoon”
N:NB-This ‘a’ could be a ‘g’
K:G
dggg gbbd’|c’bag fa d2|dggg gbbd’|c’ba”^NB”a g2 g2:|
|:gd d2 efge|dBAG FA A2|gd d2 efgg|gc’ab g2 g2:|

